polaris-icons/icons/new-icons/Rows2Major.svg

<svg width="20" height="20" viewBox="0 0 20 20" fill="none" xmlns="http://www.w3.org/2000/svg">
<path fill-rule="evenodd" clip-rule="evenodd" d="M7.25 3.5C5.17893 3.5 3.5 5.17893 3.5 7.25V12.75C3.5 14.8211 5.17893 16.5 7.25 16.5H12.75C14.8211 16.5 16.5 14.8211 16.5 12.75V7.25C16.5 5.17893 14.8211 3.5 12.75 3.5H7.25ZM5 10.75V12.75C5 13.9926 6.00736 15 7.25 15H12.75C13.9926 15 15 13.9926 15 12.75V10.75H5ZM15 9.25V7.25C15 6.00736 13.9926 5 12.75 5H7.25C6.00736 5 5 6.00736 5 7.25V9.25H15Z" fill="#4A4A4A"/>
</svg>

<svg viewBox="0 0 20 20" xmlns="http://www.w3.org/2000/svg"><path fill-rule="evenodd" d="M7.25 3.5a3.75 3.75 0 0 0-3.75 3.75v5.5a3.75 3.75 0 0 0 3.75 3.75h5.5a3.75 3.75 0 0 0 3.75-3.75v-5.5a3.75 3.75 0 0 0-3.75-3.75h-5.5Zm-2.25 7.25v2a2.25 2.25 0 0 0 2.25 2.25h5.5a2.25 2.25 0 0 0 2.25-2.25v-2h-10Zm10-1.5v-2a2.25 2.25 0 0 0-2.25-2.25h-5.5a2.25 2.25 0 0 0-2.25 2.25v2h10Z" fill="#5C5F62"/></svg>
